; LB by SSG 1.1.04
; GRBL device profile, absolute coords
; Bounds: X26 Y44.42 to X106 Y57.58
G00 G17 G40 G21 G54
G90
M4
; Scan @ 1000.002 mm/min, 10% power
M8
G0 X39.363Y49.049
; Layer C03
G91
G1 X0.417F1000S0
G1 X0.315S100
G1 X1.947S0
G1 X0.345S100
G1 X1.42S0
G1 X0.273S100
G1 X2.585S0
G1 X0.31S100
G1 X1.754S0
G1 X0.81S100
G1 X12.283S0
G1 X0.882S100
G1 X5.537S0
G1 X0.936S100
G1 X4.83S0
G1 X0.541S100
G1 X2.995S0
G1 X0.806S100
G1 X3.329S0
G1 X0.264S100
G1 X2.043S0
G1 X0.806S100
G1 X2.415S0
G1 X0.806S100
G1 X2.216S0
G1 X0.926S100
G1 X2.494S0
G1 X0.806S100
G1 X0.417S0
G1 X0.255Y0.1S0
G1 X-0.417S0
G1 X-1.296S100
G1 X-1.959S0
G1 X-1.518S100
G1 X-1.669S0
G1 X-1.296S100
G1 X-1.925S0
G1 X-1.296S100
G1 X-1.717S0
G1 X-0.479S100
G1 X-2.95S0
G1 X-1.296S100
G1 X-1.904S0
G1 X-1.832S100
G1 X-0.639S0
G1 X-2.014S100
G1 X-1.445S0
G1 X-1.565S100
G1 X-1.153S0
G1 X-2.153S100
G1 X-1.549S0
G1 X-1.585S100
G1 X-1.526S0
G1 X-2.607S100
G1 X-0.361S0
G1 X-2.608S100
G1 X-0.361S0
G1 X-2.607S100
G1 X-1.552S0
G1 X-1.426S100
G1 X-1.342S0
G1 X-0.517S100
G1 X-2.34S0
G1 X-0.511S100
G1 X-1.199S0
G1 X-0.6S100
G1 X-1.675S0
G1 X-0.598S100
G1 X-0.417S0
G1 X-0.042Y0.1S0
G1 X0.417S0
G1 X0.673S100
G1 X1.604S0
G1 X0.676S100
G1 X1.183S0
G1 X0.528S100
G1 X2.262S0
G1 X0.534S100
G1 X1.201S0
G1 X1.765S100
G1 X1.341S0
G1 X2.671S100
G1 X0.297S0
G1 X2.671S100
G1 X0.298S0
G1 X2.671S100
G1 X1.285S0
G1 X2.027S100
G1 X1.281S0
G1 X2.223S100
G1 X0.948S0
G1 X1.906S100
G1 X1.239S0
G1 X2.085S100
G1 X0.568S0
G1 X2.062S100
G1 X1.567S0
G1 X1.607S100
G1 X2.781S0
G1 X0.49S100
G1 X1.564S0
G1 X1.607S100
G1 X1.614S0
G1 X1.608S100
G1 X1.321S0
G1 X1.869S100
G1 X1.644S0
G1 X1.608S100
G1 X0.416S0
G1 X0.127Y0.1S0
G1 X-0.416S0
G1 X-1.845S100
G1 X-1.415S0
G1 X-2.113S100
G1 X-1.069S0
G1 X-1.845S100
G1 X-1.377S0
G1 X-1.844S100
G1 X-1.454S0
G1 X-0.49S100
G1 X-2.654S0
G1 X-1.844S100
G1 X-1.326S0
G1 X-2.199S100
G1 X-0.573S0
G1 X-2.079S100
G1 X-1.115S0
G1 X-2.142S100
G1 X-0.84S0
G1 X-2.219S100
G1 X-1.103S0
G1 X-2.365S100
G1 X-1.13S0
G1 X-2.67S100
G1 X-0.298S0
G1 X-2.67S100
G1 X-0.298S0
G1 X-2.67S100
G1 X-1.201S0
G1 X-2.019S100
G1 X-1.117S0
G1 X-0.533S100
G1 X-2.186S0
G1 X-0.529S100
G1 X-1.19S0
G1 X-0.736S100
G1 X-1.548S0
G1 X-0.731S100
G1 X-0.416S0
G1 X-0.031Y0.1S0
G1 X0.416S0
G1 X0.789S100
G1 X1.491S0
G1 X0.797S100
G1 X1.197S0
G1 X0.53S100
G1 X2.11S0
G1 X0.531S100
G1 X1.055S0
G1 X0.981S100
G1 X0.272S0
G1 X0.974S100
G1 X1.111S0
G1 X2.606S100
G1 X0.363S0
G1 X2.606S100
G1 X0.362S0
G1 X2.606S100
G1 X1.047S0
G1 X1.251S100
G1 X0.18S0
G1 X1.117S100
G1 X1.049S0
G1 X2.15S100
G1 X0.822S0
G1 X0.816S100
G1 X0.69S0
G1 X0.824S100
G1 X1.014S0
G1 X2.022S100
G1 X0.63S0
G1 X2.299S100
G1 X1.135S0
G1 X0.804S100
G1 X0.447S0
G1 X0.779S100
G1 X2.559S0
G1 X0.49S100
G1 X1.363S0
G1 X0.804S100
G1 X0.447S0
G1 X0.779S100
G1 X1.191S0
G1 X0.804S100
G1 X0.447S0
G1 X0.779S100
G1 X0.944S0
G1 X0.886S100
G1 X0.403S0
G1 X0.945S100
G1 X1.234S0
G1 X0.804S100
G1 X0.448S0
G1 X0.778S100
G1 X0.417S0
G1 X0.078Y0.1S0
G1 X-0.417S0
G1 X-0.643S100
G1 X-0.877S0
G1 X-0.656S100
G1 X-1.095S0
G1 X-0.697S100
G1 X-1.037S0
G1 X-0.573S100
G1 X-0.864S0
G1 X-0.643S100
G1 X-0.877S0
G1 X-0.656S100
G1 X-1.045S0
G1 X-0.643S100
G1 X-0.877S0
G1 X-0.656S100
G1 X-1.295S0
G1 X-0.49S100
G1 X-2.481S0
G1 X-0.643S100
G1 X-0.877S0
G1 X-0.656S100
G1 X-0.987S0
G1 X-0.748S100
G1 X-1.134S0
G1 X-0.497S100
G1 X-2.156S0
G1 X-0.496S100
G1 X-0.945S0
G1 X-0.651S100
G1 X-1.146S0
G1 X-0.666S100
G1 X-2.412S0
G1 X-0.496S100
G1 X-1.034S0
G1 X-0.674S100
G1 X-1.112S0
G1 X-0.906S100
G1 X-2.982S0
G1 X-0.5S100
G1 X-2.468S0
G1 X-0.5S100
G1 X-2.469S0
G1 X-0.5S100
G1 X-1.07S0
G1 X-0.715S100
G1 X-0.96S0
G1 X-0.721S100
G1 X-1.008S0
G1 X-0.529S100
G1 X-2.034S0
G1 X-0.531S100
G1 X-1.204S0
G1 X-0.858S100
G1 X-1.433S0
G1 X-0.847S100
G1 X-0.417S0
G1 X-0.031Y0.1S0
G1 X0.417S0
G1 X0.905S100
G1 X1.376S0
G1 X0.919S100
G1 X1.211S0
G1 X0.531S100
G1 X1.959S0
G1 X0.528S100
G1 X0.981S0
G1 X0.642S100
G1 X1.273S0
G1 X0.615S100
G1 X1.062S0
G1 X0.507S100
G1 X2.462S0
G1 X0.507S100
G1 X2.461S0
G1 X0.507S100
G1 X2.841S0
G1 X0.767S100
G1 X1.502S0
G1 X0.496S100
G1 X1.034S0
G1 X0.496S100
G1 X2.367S0
G1 X0.595S100
G1 X1.391S0
G1 X0.572S100
G1 X0.895S0
G1 X0.496S100
G1 X2.156S0
G1 X0.497S100
G1 X1.307S0
G1 X0.635S100
G1 X0.87S0
G1 X0.602S100
G1 X1.111S0
G1 X0.588S100
G1 X2.413S0
G1 X0.49S100
G1 X1.239S0
G1 X0.601S100
G1 X1.111S0
G1 X0.588S100
G1 X0.921S0
G1 X0.601S100
G1 X1.111S0
G1 X0.588S100
G1 X0.822S0
G1 X0.323S100
G1 X1.431S0
G1 X0.59S100
G1 X0.976S0
G1 X0.601S100
G1 X1.111S0
G1 X0.588S100
G1 X0.417S0
G1 X0.047Y0.1S0
G1 X-0.417S0
G1 X-0.554S100
G1 X-1.273S0
G1 X-0.563S100
G1 X-0.896S0
G1 X-0.556S100
G1 X-2.6S0
G1 X-0.554S100
G1 X-1.273S0
G1 X-0.563S100
G1 X-0.831S0
G1 X-0.554S100
G1 X-1.273S0
G1 X-0.563S100
G1 X-1.196S0
G1 X-0.49S100
G1 X-2.366S0
G1 X-0.554S100
G1 X-1.273S0
G1 X-0.563S100
G1 X-0.782S0
G1 X-0.576S100
G1 X-1.412S0
G1 X-0.497S100
G1 X-2.156S0
G1 X-0.496S100
G1 X-0.855S0
G1 X-0.549S100
G1 X-1.528S0
G1 X-0.554S100
G1 X-2.334S0
G1 X-0.496S100
G1 X-1.034S0
G1 X-0.496S100
G1 X-1.655S0
G1 X-0.684S100
G1 X-2.702S0
G1 X-0.507S100
G1 X-2.462S0
G1 X-0.507S100
G1 X-2.461S0
G1 X-0.507S100
G1 X-1.07S0
G1 X-0.571S100
G1 X-1.477S0
G1 X-0.6S100
G1 X-0.963S0
G1 X-0.527S100
G1 X-1.887S0
G1 X-0.527S100
G1 X-1.219S0
G1 X-0.465S100
G1 X-0.012S0
G1 X-0.501S100
G1 X-1.32S0
G1 X-0.465S100
G1 X-0.498
G1 X-0.417S0
G1 X-0.031Y0.1S0
G1 X0.417S0
G1 X0.495S100
G1 X0.061S0
G1 X0.466S100
G1 X1.262S0
G1 X0.502S100
G1 X0.07S0
G1 X0.467S100
G1 X1.226S0
G1 X0.522S100
G1 X1.817S0
G1 X0.525S100
G1 X0.956S0
G1 X0.575S100
G1 X1.616S0
G1 X0.546S100
G1 X1.095S0
G1 X0.507S100
G1 X2.462S0
G1 X0.507S100
G1 X2.461S0
G1 X0.507S100
G1 X2.564S0
G1 X0.628S100
G1 X1.781S0
G1 X0.496S100
G1 X1.034S0
G1 X0.496S100
G1 X2.312S0
G1 X0.544S100
G1 X1.605S0
G1 X0.527S100
G1 X0.832S0
G1 X0.496S100
G1 X2.156S0
G1 X0.497S100
G1 X1.475S0
G1 X0.552S100
G1 X0.709S0
G1 X0.539S100
G1 X1.387S0
G1 X0.542S100
G1 X2.322S0
G1 X0.49S100
G1 X1.162S0
G1 X0.539S100
G1 X1.387S0
G1 X0.542S100
G1 X0.753S0
G1 X0.539S100
G1 X1.387S0
G1 X0.542S100
G1 X2.619S0
G1 X0.53S100
G1 X0.825S0
G1 X0.539S100
G1 X1.387S0
G1 X0.543S100
G1 X0.416S0
G1 X0.028Y0.1S0
G1 X-0.417S0
G1 X-0.535S100
G1 X-1.461S0
G1 X-0.522S100
G1 X-0.782S0
G1 X-0.526S100
G1 X-2.616S0
G1 X-0.535S100
G1 X-1.461S0
G1 X-0.522S100
G1 X-0.703S0
G1 X-0.535S100
G1 X-1.462S0
G1 X-0.521S100
G1 X-1.14S0
G1 X-0.49S100
G1 X-2.294S0
G1 X-0.535S100
G1 X-1.462S0
G1 X-0.521S100
G1 X-0.665S0
G1 X-0.532S100
G1 X-1.517S0
G1 X-0.497S100
G1 X-2.156S0
G1 X-0.496S100
G1 X-0.819S0
G1 X-0.524S100
G1 X-1.644S0
G1 X-0.527S100
G1 X-2.306S0
G1 X-0.496S100
G1 X-1.034S0
G1 X-0.496S100
G1 X-1.85S0
G1 X-0.61S100
G1 X-2.444S0
G1 X-0.507S100
G1 X-2.462S0
G1 X-0.507S100
G1 X-2.461S0
G1 X-0.507S100
G1 X-1.125S0
G1 X-0.533S100
G1 X-1.727S0
G1 X-0.551S100
G1 X-0.96S0
G1 X-0.523S100
G1 X-1.746S0
G1 X-0.518S100
G1 X-1.233S0
G1 X-0.469S100
G1 X-0.129S0
G1 X-0.502S100
G1 X-1.205S0
G1 X-0.465S100
G1 X-0.119S0
G1 X-0.496S100
G1 X-0.417S0
G1 X-0.03Y0.1S0
G1 X0.416S0
G1 X0.498S100
G1 X0.175S0
G1 X0.465S100
G1 X1.148S0
G1 X0.502S100
G1 X0.188S0
G1 X0.471S100
G1 X1.24S0
G1 X0.514S100
G1 X1.675S0
G1 X0.522S100
G1 X0.969S0
G1 X0.534S100
G1 X1.816S0
G1 X0.515S100
G1 X1.168S0
G1 X0.507S100
G1 X2.462S0
G1 X0.507S100
G1 X2.461S0
G1 X0.507S100
G1 X2.328S0
G1 X0.591S100
G1 X1.917S0
G1 X0.496S100
G1 X1.034S0
G1 X0.496S100
G1 X2.309S0
G1 X0.524S100
G1 X1.647S0
G1 X0.526S100
G1 X0.814S0
G1 X0.496S100
G1 X2.156S0
G1 X0.497S100
G1 X1.535S0
G1 X0.53S100
G1 X0.626S0
G1 X0.515S100
G1 X1.515S0
G1 X0.537S100
G1 X0.512S0
G1 X2.822S100
G1 X0.541S0
G1 X0.515S100
G1 X1.515S0
G1 X0.537S100
G1 X0.654S0
G1 X0.515S100
G1 X1.515S0
G1 X0.537S100
G1 X2.615S0
G1 X0.51S100
G1 X0.751S0
G1 X0.514S100
G1 X1.515S0
G1 X0.537S100
G1 X0.417S0
G1 X0.018Y0.1S0
G1 X-0.417S0
G1 X-0.53S100
G1 X-1.559S0
G1 X-0.518S100
G1 X-0.719S0
G1 X-0.524S100
G1 X-2.592S0
G1 X-0.53S100
G1 X-1.559S0
G1 X-0.518S100
G1 X-0.614S0
G1 X-0.53S100
G1 X-1.559S0
G1 X-0.518S100
G1 X-0.489S0
G1 X-2.896S100
G1 X-0.451S0
G1 X-0.529S100
G1 X-1.559S0
G1 X-0.518S100
G1 X-0.599S0
G1 X-0.519S100
G1 X-1.551S0
G1 X-0.497S100
G1 X-2.156S0
G1 X-0.496S100
G1 X-0.826S0
G1 X-0.531S100
G1 X-1.617S0
G1 X-0.523S100
G1 X-2.323S0
G1 X-0.496S100
G1 X-1.034S0
G1 X-0.496S100
G1 X-1.984S0
G1 X-0.571S100
G1 X-2.212S0
G1 X-0.508S100
G1 X-2.461S0
G1 X-0.507S100
G1 X-2.461S0
G1 X-0.508S100
G1 X-1.214S0
G1 X-0.509S100
G1 X-1.873S0
G1 X-0.522S100
G1 X-0.991S0
G1 X-2.634S100
G1 X-1.247S0
G1 X-0.473S100
G1 X-0.247S0
G1 X-0.502S100
G1 X-1.091S0
G1 X-0.465S100
G1 X-0.232S0
G1 X-0.499S100
G1 X-0.416S0
G1 X-0.031Y0.1S0
G1 X0.416S0
G1 X0.501S100
G1 X0.289S0
G1 X0.465S100
G1 X1.034S0
G1 X0.502S100
G1 X0.304S0
G1 X0.476S100
G1 X1.254S0
G1 X2.557S100
G1 X1.016S0
G1 X0.507S100
G1 X1.924S0
G1 X0.496S100
G1 X1.274S0
G1 X0.507S100
G1 X2.462S0
G1 X0.507S100
G1 X2.461S0
G1 X0.507S100
G1 X2.105S0
G1 X0.562S100
G1 X2.032S0
G1 X0.496S100
G1 X1.034S0
G1 X0.496S100
G1 X2.359S0
G1 X0.517S100
G1 X1.548S0
G1 X0.552S100
G1 X0.844S0
G1 X0.496S100
G1 X2.156S0
G1 X0.497S100
G1 X1.545S0
G1 X0.52S100
G1 X0.582S0
G1 X0.521S100
G1 X1.602S0
G1 X0.523S100
G1 X0.43S0
G1 X2.897S100
G1 X0.469S0
G1 X0.521S100
G1 X1.602S0
G1 X0.524S100
G1 X0.574S0
G1 X0.521S100
G1 X1.602S0
G1 X0.524S100
G1 X2.562S0
G1 X0.524S100
G1 X0.709S0
G1 X0.521S100
G1 X1.602S0
G1 X0.524S100
G1 X0.417S0
G1 X0.018Y0.1S0
G1 X-0.417S0
G1 X-0.517S100
G1 X-1.646S0
G1 X-0.523S100
G1 X-0.705S0
G1 X-0.534S100
G1 X-2.517S0
G1 X-0.517S100
G1 X-1.646S0
G1 X-0.523S100
G1 X-0.535S0
G1 X-0.517S100
G1 X-1.646S0
G1 X-0.523S100
G1 X-0.519S0
G1 X-2.793S100
G1 X-0.445S0
G1 X-0.516S100
G1 X-1.646S0
G1 X-0.523S100
G1 X-0.573S0
G1 X-0.53S100
G1 X-1.523S0
G1 X-0.497S100
G1 X-2.156S0
G1 X-0.496S100
G1 X-0.877S0
G1 X-0.573S100
G1 X-1.441S0
G1 X-0.529S100
G1 X-2.4S0
G1 X-0.496S100
G1 X-1.034S0
G1 X-0.496S100
G1 X-2.07S0
G1 X-0.552S100
G1 X-2.009S0
G1 X-0.507S100
G1 X-2.461S0
G1 X-0.507S100
G1 X-2.462S0
G1 X-0.507S100
G1 X-1.334S0
G1 X-0.495S100
G1 X-1.937S0
G1 X-0.503S100
G1 X-1.055S0
G1 X-2.48S100
G1 X-1.261S0
G1 X-0.478S100
G1 X-0.363S0
G1 X-0.502S100
G1 X-0.977S0
G1 X-0.465S100
G1 X-0.346S0
G1 X-0.501S100
G1 X-0.417S0
G1 X-0.031Y0.1S0
G1 X0.417S0
G1 X0.503S100
G1 X0.402S0
G1 X0.465S100
G1 X0.92S0
G1 X0.502S100
G1 X0.422S0
G1 X0.48S100
G1 X1.268S0
G1 X2.404S100
G1 X1.094S0
G1 X0.499S100
G1 X1.943S0
G1 X0.496S100
G1 X1.399S0
G1 X0.507S100
G1 X2.461S0
G1 X0.508S100
G1 X2.461S0
G1 X0.507S100
G1 X1.911S0
G1 X0.542S100
G1 X2.109S0
G1 X0.496S100
G1 X1.034S0
G1 X0.496S100
G1 X2.445S0
G1 X0.564S100
G1 X1.255S0
G1 X0.632S100
G1 X0.924S0
G1 X0.496S100
G1 X2.156S0
G1 X0.497S100
G1 X1.485S0
G1 X0.541S100
G1 X0.591S0
G1 X0.513S100
G1 X1.685S0
G1 X0.513S100
G1 X0.548S0
G1 X0.405S100
G1 X1.245S0
G1 X0.49S100
G1 X1.043S0
G1 X0.513S100
G1 X1.686S0
G1 X0.514S100
G1 X0.508S0
G1 X0.513S100
G1 X1.686S0
G1 X0.514S100
G1 X2.445S0
G1 X0.569S100
G1 X0.715S0
G1 X0.513S100
G1 X1.686S0
G1 X0.514S100
G1 X0.417S0
G1 X0.018Y0.1S0
G1 X-0.417S0
G1 X-0.523S100
G1 X-1.712S0
G1 X-0.505S100
G1 X-0.752S0
G1 X-0.587S100
G1 X-2.363S0
G1 X-0.524S100
G1 X-1.711S0
G1 X-0.505S100
G1 X-0.481S0
G1 X-0.524S100
G1 X-1.711S0
G1 X-0.505S100
G1 X-1.034S0
G1 X-0.49S100
G1 X-1.18S0
G1 X-0.393S100
G1 X-0.607S0
G1 X-0.522S100
G1 X-1.711S0
G1 X-0.505S100
G1 X-0.615S0
G1 X-0.566S100
G1 X-1.427S0
G1 X-0.497S100
G1 X-2.156S0
G1 X-0.496S100
G1 X-0.982S0
G1 X-0.695S100
G1 X-1.022S0
G1 X-0.604S100
G1 X-2.517S0
G1 X-0.496S100
G1 X-1.034S0
G1 X-0.496S100
G1 X-2.146S0
G1 X-0.534S100
G1 X-1.814S0
G1 X-0.507S100
G1 X-2.461S0
G1 X-0.507S100
G1 X-2.462S0
G1 X-0.507S100
G1 X-1.465S0
G1 X-0.497S100
G1 X-1.946S0
G1 X-0.496S100
G1 X-1.134S0
G1 X-0.488S100
G1 X-1.36S0
G1 X-0.479S100
G1 X-1.275S0
G1 X-0.482S100
G1 X-0.48S0
G1 X-0.503S100
G1 X-0.863S0
G1 X-0.465S100
G1 X-0.459S0
G1 X-0.504S100
G1 X-0.417S0
G1 X-0.031Y0.1S0
G1 X0.417S0
G1 X0.505S100
G1 X0.517S0
G1 X0.465S100
G1 X0.805S0
G1 X0.503S100
G1 X0.539S0
G1 X0.484S100
G1 X1.282S0
G1 X0.479S100
G1 X1.283S0
G1 X0.488S100
G1 X1.173S0
G1 X0.496S100
G1 X1.946S0
G1 X0.497S100
G1 X1.534S0
G1 X0.507S100
G1 X2.461S0
G1 X0.507S100
G1 X2.462S0
G1 X0.507S100
G1 X1.734S0
G1 X0.531S100
G1 X2.16S0
G1 X0.496S100
G1 X1.034S0
G1 X0.496S100
G1 X2.59S0
G1 X0.684S100
G1 X0.729S0
G1 X0.753S100
G1 X1.064S0
G1 X0.496S100
G1 X2.156S0
G1 X0.497S100
G1 X1.338S0
G1 X0.608S100
G1 X0.653S0
G1 X0.509S100
G1 X1.725S0
G1 X0.521S100
G1 X0.659S0
G1 X0.397S100
G1 X1.116S0
G1 X0.49S100
G1 X1.025S0
G1 X0.509S100
G1 X1.725S0
G1 X0.527S100
G1 X0.46S0
G1 X0.509S100
G1 X1.725S0
G1 X0.527S100
G1 X2.226S0
G1 X0.666S100
G1 X0.789S0
G1 X0.51S100
G1 X1.724S0
G1 X0.527S100
G1 X0.417S0
G1 Y0.1S0
G1 X-0.414S0
G1 X-0.521S100
G1 X-1.738S0
G1 X-0.513S100
G1 X-0.846S0
G1 X-0.783S100
G1 X-2.041S0
G1 X-0.521S100
G1 X-1.738S0
G1 X-0.514S100
G1 X-0.448S0
G1 X-0.521S100
G1 X-1.738S0
G1 X-0.514S100
G1 X-1.016S0
G1 X-0.49S100
G1 X-1.052S0
G1 X-0.402S100
G1 X-0.714S0
G1 X-0.516S100
G1 X-1.738S0
G1 X-0.514S100
G1 X-0.705S0
G1 X-0.691S100
G1 X-1.194S0
G1 X-0.497S100
G1 X-2.156S0
G1 X-0.496S100
G1 X-1.17S0
G1 X-0.819S100
G1 X-0.388S0
G1 X-0.744S100
G1 X-2.699S0
G1 X-0.496S100
G1 X-1.034S0
G1 X-0.496S100
G1 X-2.175S0
G1 X-0.528S100
G1 X-1.654S0
G1 X-0.507S100
G1 X-2.461S0
G1 X-0.507S100
G1 X-2.462S0
G1 X-0.507S100
G1 X-1.602S0
G1 X-0.497S100
G1 X-1.946S0
G1 X-0.496S100
G1 X-1.211S0
G1 X-0.488S100
G1 X-1.208S0
G1 X-0.478S100
G1 X-1.289S0
G1 X-0.486S100
G1 X-0.598S0
G1 X-0.502S100
G1 X-0.749S0
G1 X-0.465S100
G1 X-0.573S0
G1 X-0.507S100
G1 X-0.416S0
G1 X-0.031Y0.1S0
G1 X0.416S0
G1 X0.508S100
G1 X0.63S0
G1 X0.465S100
G1 X0.692S0
G1 X0.502S100
G1 X0.657S0
G1 X0.488S100
G1 X1.296S0
G1 X0.478S100
G1 X1.131S0
G1 X0.488S100
G1 X1.25S0
G1 X0.496S100
G1 X1.946S0
G1 X0.497S100
G1 X1.67S0
G1 X0.508S100
G1 X2.461S0
G1 X0.507S100
G1 X2.461S0
G1 X0.508S100
G1 X1.573S0
G1 X0.526S100
G1 X1.111S0
G1 X1.574S100
G1 X1.034S0
G1 X0.496S100
G1 X2.815S0
G1 X1.707S100
G1 X1.298S0
G1 X0.496S100
G1 X2.156S0
G1 X0.876S100
G1 X0.072S0
G1 X1.359S100
G1 X0.771S0
G1 X0.518S100
G1 X1.752S0
G1 X0.511S100
G1 X0.769S0
G1 X0.408S100
G1 X0.987S0
G1 X0.49S100
G1 X1.008S0
G1 X0.517S100
G1 X1.752S0
G1 X0.515S100
G1 X0.437S0
G1 X0.518S100
G1 X1.751S0
G1 X0.515S100
G1 X1.099S0
G1 X1.63S100
G1 X0.929S0
G1 X0.518S100
G1 X1.751S0
G1 X0.515S100
G1 X0.416S0
G1 Y0.1S0
G1 X-0.414S0
G1 X-0.508S100
G1 X-1.765S0
G1 X-0.513S100
G1 X-1.052S0
G1 X-1.634S100
G1 X-0.97S0
G1 X-0.508S100
G1 X-1.765S0
G1 X-0.513S100
G1 X-0.435S0
G1 X-0.508S100
G1 X-1.765S0
G1 X-0.513S100
G1 X-1.008S0
G1 X-0.49S100
G1 X-0.923S0
G1 X-0.413S100
G1 X-0.823S0
G1 X-0.507S100
G1 X-1.765S0
G1 X-0.514S100
G1 X-0.866S0
G1 X-2.212S100
G1 X-2.156S0
G1 X-0.496S100
G1 X-1.459S0
G1 X-1.355S100
G1 X-1.557S0
G1 X-1.945S100
G1 X-1.034S0
G1 X-1.599S100
G1 X-1.096S0
G1 X-0.521S100
G1 X-1.5S0
G1 X-0.507S100
G1 X-2.461S0
G1 X-0.508S100
G1 X-2.461S0
G1 X-0.507S100
G1 X-1.739S0
G1 X-0.497S100
G1 X-1.946S0
G1 X-0.496S100
G1 X-1.289S0
G1 X-0.487S100
G1 X-1.056S0
G1 X-0.477S100
G1 X-1.303S0
G1 X-0.49S100
G1 X-0.715S0
G1 X-0.503S100
G1 X-0.634S0
G1 X-0.466S100
G1 X-0.686S0
G1 X-0.51S100
G1 X-0.416S0
G1 X-0.031Y0.1S0
G1 X0.417S0
G1 X0.51S100
G1 X0.744S0
G1 X0.465S100
G1 X0.577S0
G1 X0.503S100
G1 X0.774S0
G1 X0.491S100
G1 X1.311S0
G1 X0.477S100
G1 X0.979S0
G1 X0.487S100
G1 X1.328S0
G1 X0.496S100
G1 X1.946S0
G1 X0.497S100
G1 X1.807S0
G1 X0.508S100
G1 X2.461S0
G1 X0.507S100
G1 X2.461S0
G1 X0.508S100
G1 X1.436S0
G1 X0.525S100
G1 X1.1S0
G1 X1.57S100
G1 X1.05S0
G1 X1.975S100
G1 X1.778S0
G1 X0.881S100
G1 X1.682S0
G1 X0.496S100
G1 X2.156S0
G1 X2.082S100
G1 X1.001S0
G1 X0.504S100
G1 X1.767S0
G1 X0.514S100
G1 X0.878S0
G1 X0.418S100
G1 X0.859S0
G1 X0.49S100
G1 X1.012S0
G1 X0.505S100
G1 X1.766S0
G1 X0.514S100
G1 X0.436S0
G1 X0.505S100
G1 X1.766S0
G1 X0.514S100
G1 X0.947S0
G1 X1.471S100
G1 X1.239S0
G1 X0.505S100
G1 X1.767S0
G1 X0.513S100
G1 X0.417S0
G1 Y0.1S0
G1 X-0.414S0
G1 X-0.523S100
G1 X-1.753S0
G1 X-0.508S100
G1 X-1.294S0
G1 X-1.403S100
G1 X-0.961S0
G1 X-0.523S100
G1 X-1.753S0
G1 X-0.508S100
G1 X-0.437S0
G1 X-0.523S100
G1 X-1.753S0
G1 X-0.508S100
G1 X-1.016S0
G1 X-0.49S100
G1 X-0.794S0
G1 X-0.424S100
G1 X-0.937S0
G1 X-0.52S100
G1 X-1.753S0
G1 X-0.508S100
G1 X-1.235S0
G1 X-1.852S100
G1 X-2.156S0
G1 X-0.496S100
G1 X-1.609S0
G1 X-1.186S100
G1 X-1.543S0
G1 X-1.978S100
G1 X-1.135S0
G1 X-1.432S100
G1 X-1.144S0
G1 X-0.529S100
G1 X-1.373S0
G1 X-0.507S100
G1 X-2.461S0
G1 X-0.508S100
G1 X-2.461S0
G1 X-0.507S100
G1 X-1.876S0
G1 X-0.497S100
G1 X-1.946S0
G1 X-0.496S100
G1 X-1.366S0
G1 X-0.488S100
G1 X-0.902S0
G1 X-0.477S100
G1 X-1.318S0
G1 X-0.493S100
G1 X-0.833S0
G1 X-0.503S100
G1 X-0.52S0
G1 X-0.465S100
G1 X-0.801S0
G1 X-0.511S100
G1 X-0.417S0
G1 X-0.031Y0.1S0
G1 X0.417S0
G1 X0.513S100
G1 X0.857S0
G1 X0.465S100
G1 X0.464S0
G1 X0.503S100
G1 X0.891S0
G1 X0.495S100
G1 X1.325S0
G1 X0.476S100
G1 X0.827S0
G1 X0.487S100
G1 X1.405S0
G1 X0.496S100
G1 X1.946S0
G1 X0.497S100
G1 X1.944S0
G1 X0.507S100
G1 X2.462S0
G1 X0.507S100
G1 X2.461S0
G1 X0.507S100
G1 X1.31S0
G1 X0.532S100
G1 X3.703S0
G1 X1.919S100
G1 X1.458S0
G1 X1.503S100
G1 X1.436S0
G1 X0.496S100
G1 X2.156S0
G1 X2.007S100
G1 X1.084S0
G1 X0.514S100
G1 X1.737S0
G1 X0.517S100
G1 X1.005S0
G1 X0.429S100
G1 X0.73S0
G1 X0.49S100
G1 X1.02S0
G1 X0.514S100
G1 X1.737S0
G1 X0.523S100
G1 X0.447S0
G1 X0.514S100
G1 X1.737S0
G1 X0.523S100
G1 X1.059S0
G1 X1.443S100
G1 X1.167S0
G1 X0.513S100
G1 X1.737S0
G1 X0.523S100
G1 X0.417S0
G1 X-0.013Y0.1S0
G1 X-0.416S0
G1 X-0.517S100
G1 X-1.721S0
G1 X-0.519S100
G1 X-1.073S0
G1 X-0.685S100
G1 X-1.927S0
G1 X-0.518S100
G1 X-1.72S0
G1 X-0.519S100
G1 X-0.464S0
G1 X-0.518S100
G1 X-1.72S0
G1 X-0.519S100
G1 X-1.025S0
G1 X-0.49S100
G1 X-0.666S0
G1 X-0.434S100
G1 X-1.073S0
G1 X-0.515S100
G1 X-1.72S0
G1 X-0.519S100
G1 X-0.979S0
G1 X-0.657S100
G1 X-0.963S0
G1 X-0.497S100
G1 X-2.156S0
G1 X-0.496S100
G1 X-1.311S0
G1 X-0.724S100
G1 X-0.216S0
G1 X-0.804S100
G1 X-2.765S0
G1 X-0.496S100
G1 X-3.691S0
G1 X-0.526S100
G1 X-1.259S0
G1 X-0.508S100
G1 X-2.46S0
G1 X-0.508S100
G1 X-2.461S0
G1 X-0.508S100
G1 X-2.012S0
G1 X-0.497S100
G1 X-1.946S0
G1 X-0.496S100
G1 X-1.444S0
G1 X-0.487S100
G1 X-0.75S0
G1 X-0.476S100
G1 X-1.332S0
G1 X-0.497S100
G1 X-0.95S0
G1 X-0.503S100
G1 X-0.406S0
G1 X-0.465S100
G1 X-0.915S0
G1 X-0.514S100
G1 X-0.417S0
G1 X-0.031Y0.1S0
G1 X0.417S0
G1 X0.516S100
G1 X0.971S0
G1 X0.465S100
G1 X0.349S0
G1 X0.503S100
G1 X1.009S0
G1 X0.499S100
G1 X1.339S0
G1 X0.475S100
G1 X0.675S0
G1 X0.486S100
G1 X1.483S0
G1 X0.496S100
G1 X1.946S0
G1 X0.497S100
G1 X2.081S0
G1 X0.507S100
G1 X2.461S0
G1 X0.508S100
G1 X2.461S0
G1 X0.507S100
G1 X1.213S0
G1 X0.526S100
G1 X3.669S0
G1 X0.496S100
G1 X2.674S0
G1 X0.722S100
G1 X0.559S0
G1 X0.647S100
G1 X1.218S0
G1 X0.496S100
G1 X2.156S0
G1 X0.497S100
G1 X1.11S0
G1 X0.569S100
G1 X0.927S0
G1 X0.521S100
G1 X1.705S0
G1 X0.512S100
G1 X1.141S0
G1 X0.44S100
G1 X0.601S0
G1 X0.49S100
G1 X1.032S0
G1 X0.521S100
G1 X1.705S0
G1 X0.511S100
G1 X0.484S0
G1 X0.521S100
G1 X1.705S0
G1 X0.511S100
G1 X2.087S0
G1 X0.615S100
G1 X1.003S0
G1 X0.522S100
G1 X1.704S0
G1 X0.511S100
G1 X0.417S0
G1 X-0.013Y0.1S0
G1 X-0.416S0
G1 X-0.509S100
G1 X-1.684S0
G1 X-0.514S100
G1 X-0.958S0
G1 X-0.574S100
G1 X-2.203S0
G1 X-0.509S100
G1 X-1.685S0
G1 X-0.513S100
G1 X-0.514S0
G1 X-0.509S100
G1 X-1.685S0
G1 X-0.513S100
G1 X-1.05S0
G1 X-0.49S100
G1 X-0.537S0
G1 X-0.445S100
G1 X-1.209S0
G1 X-0.513S100
G1 X-1.685S0
G1 X-0.513S100
G1 X-0.887S0
G1 X-0.539S100
G1 X-1.198S0
G1 X-0.497S100
G1 X-2.156S0
G1 X-0.496S100
G1 X-1.147S0
G1 X-0.583S100
G1 X-0.841S0
G1 X-0.645S100
G1 X-2.604S0
G1 X-0.496S100
G1 X-3.648S0
G1 X-0.526S100
G1 X-1.165S0
G1 X-0.508S100
G1 X-2.461S0
G1 X-0.507S100
G1 X-2.461S0
G1 X-0.508S100
G1 X-2.149S0
G1 X-0.497S100
G1 X-1.946S0
G1 X-0.496S100
G1 X-1.521S0
G1 X-0.487S100
G1 X-0.598S0
G1 X-0.475S100
G1 X-1.346S0
G1 X-0.501S100
G1 X-1.068S0
G1 X-0.503S100
G1 X-0.292S0
G1 X-0.465S100
G1 X-1.028S0
G1 X-0.517S100
G1 X-0.416S0
G1 X-0.031Y0.1S0
G1 X0.416S0
G1 X0.518S100
G1 X1.085S0
G1 X0.465S100
G1 X0.236S0
G1 X0.503S100
G1 X1.126S0
G1 X0.503S100
G1 X1.353S0
G1 X0.474S100
G1 X0.522S0
G1 X0.487S100
G1 X1.56S0
G1 X0.496S100
G1 X1.946S0
G1 X0.497S100
G1 X2.218S0
G1 X0.507S100
G1 X2.461S0
G1 X0.508S100
G1 X2.461S0
G1 X0.507S100
G1 X1.123S0
G1 X0.526S100
G1 X3.622S0
G1 X0.496S100
G1 X2.548S0
G1 X0.595S100
G1 X1.04S0
G1 X0.548S100
G1 X1.089S0
G1 X0.496S100
G1 X2.156S0
G1 X0.497S100
G1 X1.254S0
G1 X0.522S100
G1 X0.865S0
G1 X0.514S100
G1 X1.645S0
G1 X0.526S100
G1 X1.277S0
G1 X0.45S100
G1 X0.473S0
G1 X0.49S100
G1 X1.067S0
G1 X0.514S100
G1 X1.645S0
G1 X0.518S100
G1 X0.544S0
G1 X0.514S100
G1 X1.645S0
G1 X0.518S100
G1 X2.29S0
G1 X0.542S100
G1 X0.933S0
G1 X0.515S100
G1 X1.644S0
G1 X0.518S100
G1 X0.417S0
G1 X-0.013Y0.1S0
G1 X-0.416S0
G1 X-0.528S100
G1 X-1.598S0
G1 X-0.521S100
G1 X-0.917S0
G1 X-0.528S100
G1 X-2.35S0
G1 X-0.528S100
G1 X-1.598S0
G1 X-0.521S100
G1 X-0.574S0
G1 X-0.528S100
G1 X-1.598S0
G1 X-0.521S100
G1 X-1.085S0
G1 X-0.49S100
G1 X-0.408S0
G1 X-0.455S100
G1 X-1.358S0
G1 X-0.527S100
G1 X-1.598S0
G1 X-0.521S100
G1 X-0.861S0
G1 X-0.51S100
G1 X-1.288S0
G1 X-0.497S100
G1 X-2.156S0
G1 X-0.496S100
G1 X-1.044S0
G1 X-0.528S100
G1 X-1.19S0
G1 X-0.555S100
G1 X-2.503S0
G1 X-0.496S100
G1 X-3.575S0
G1 X-0.533S100
G1 X-1.094S0
G1 X-0.508S100
G1 X-2.461S0
G1 X-0.507S100
G1 X-2.461S0
G1 X-0.508S100
G1 X-2.286S0
G1 X-0.497S100
G1 X-1.946S0
G1 X-0.496S100
G1 X-1.599S0
G1 X-0.486S100
G1 X-0.446S0
G1 X-0.474S100
G1 X-1.36S0
G1 X-0.505S100
G1 X-1.185S0
G1 X-0.503S100
G1 X-0.178S0
G1 X-0.465S100
G1 X-1.142S0
G1 X-0.519S100
G1 X-0.417S0
G1 X-0.031Y0.1S0
G1 X0.417S0
G1 X0.52S100
G1 X1.199S0
G1 X0.465S100
G1 X0.121S0
G1 X0.503S100
G1 X1.244S0
G1 X0.507S100
G1 X1.367S0
G1 X0.474S100
G1 X0.369S0
G1 X0.487S100
G1 X1.637S0
G1 X0.496S100
G1 X1.946S0
G1 X0.497S100
G1 X2.354S0
G1 X0.508S100
G1 X2.461S0
G1 X0.508S100
G1 X2.46S0
G1 X0.508S100
G1 X1.066S0
G1 X0.541S100
G1 X3.527S0
G1 X0.496S100
G1 X2.476S0
G1 X0.538S100
G1 X1.282S0
G1 X0.51S100
G1 X1.014S0
G1 X0.496S100
G1 X2.156S0
G1 X0.497S100
G1 X1.304S0
G1 X0.516S100
G1 X0.856S0
G1 X0.528S100
G1 X1.552S0
G1 X0.527S100
G1 X1.439S0
G1 X0.46S100
G1 X0.344S0
G1 X0.49S100
G1 X1.102S0
G1 X0.528S100
G1 X1.552S0
G1 X0.525S100
G1 X0.616S0
G1 X0.528S100
G1 X1.552S0
G1 X0.525S100
G1 X2.405S0
G1 X0.521S100
G1 X0.911S0
G1 X0.529S100
G1 X1.551S0
G1 X0.526S100
G1 X0.416S0
G1 X-0.028Y0.1S0
G1 X-0.417S0
G1 X-0.518S100
G1 X-1.506S0
G1 X-0.535S100
G1 X-0.918S0
G1 X-0.52S100
G1 X-2.445S0
G1 X-0.519S100
G1 X-1.505S0
G1 X-0.535S100
G1 X-0.662S0
G1 X-0.519S100
G1 X-1.505S0
G1 X-0.535S100
G1 X-1.12S0
G1 X-0.49S100
G1 X-0.28S0
G1 X-0.465S100
G1 X-1.521S0
G1 X-0.526S100
G1 X-1.505S0
G1 X-0.535S100
G1 X-0.877S0
G1 X-0.514S100
G1 X-1.303S0
G1 X-0.497S100
G1 X-2.156S0
G1 X-0.496S100
G1 X-0.991S0
G1 X-0.498S100
G1 X-1.349S0
G1 X-0.518S100
G1 X-2.464S0
G1 X-0.496S100
G1 X-3.47S0
G1 X-0.559S100
G1 X-1.036S0
G1 X-0.508S100
G1 X-2.461S0
G1 X-0.507S100
G1 X-2.461S0
G1 X-0.508S100
G1 X-2.423S0
G1 X-0.497S100
G1 X-1.946S0
G1 X-0.496S100
G1 X-1.676S0
G1 X-0.486S100
G1 X-0.294S0
G1 X-0.473S100
G1 X-1.374S0
G1 X-0.509S100
G1 X-1.302S0
G1 X-0.504S100
G1 X-0.064S0
G1 X-0.465S100
G1 X-1.255S0
G1 X-0.522S100
G1 X-0.417S0
G1 X-0.031Y0.1S0
G1 X0.417S0
G1 X0.523S100
G1 X1.313S0
G1 X0.465S100
G1 X0.51
G1 X1.36S0
G1 X0.512S100
G1 X1.381S0
G1 X0.473S100
G1 X0.217S0
G1 X0.486S100
G1 X1.715S0
G1 X0.496S100
G1 X1.946S0
G1 X0.497S100
G1 X2.491S0
G1 X0.508S100
G1 X2.461S0
G1 X0.508S100
G1 X2.46S0
G1 X0.508S100
G1 X1.025S0
G1 X0.583S100
G1 X3.389S0
G1 X0.496S100
G1 X2.46S0
G1 X0.52S100
G1 X1.363S0
G1 X0.496S100
G1 X0.981S0
G1 X0.496S100
G1 X2.156S0
G1 X0.497S100
G1 X1.287S0
G1 X0.521S100
G1 X0.911S0
G1 X0.534S100
G1 X1.459S0
G1 X0.526S100
G1 X1.602S0
G1 X0.471S100
G1 X0.215S0
G1 X0.49S100
G1 X1.147S0
G1 X0.532S100
G1 X1.459S0
G1 X0.513S100
G1 X0.717S0
G1 X0.532S100
G1 X1.459S0
G1 X0.513S100
G1 X2.467S0
G1 X0.531S100
G1 X0.94S0
G1 X0.533S100
G1 X1.459S0
G1 X0.512S100
G1 X0.417S0
G1 X-0.029Y0.1S0
G1 X-0.416S0
G1 X-0.525S100
G1 X-1.379S0
G1 X-0.544S100
G1 X-0.98S0
G1 X-0.539S100
G1 X-2.475S0
G1 X-0.525S100
G1 X-1.379S0
G1 X-0.544S100
G1 X-0.773S0
G1 X-0.525S100
G1 X-1.379S0
G1 X-0.544S100
G1 X-1.175S0
G1 X-0.49S100
G1 X-0.151S0
G1 X-0.476S100
G1 X-1.684S0
G1 X-0.543S100
G1 X-1.379S0
G1 X-0.547S100
G1 X-0.948S0
G1 X-0.543S100
G1 X-1.255S0
G1 X-0.497S100
G1 X-2.156S0
G1 X-0.496S100
G1 X-0.98S0
G1 X-0.506S100
G1 X-1.354S0
G1 X-0.511S100
G1 X-2.469S0
G1 X-0.496S100
G1 X-3.309S0
G1 X-0.603S100
G1 X-1.017S0
G1 X-0.507S100
G1 X-2.461S0
G1 X-0.508S100
G1 X-2.461S0
G1 X-0.507S100
G1 X-2.56S0
G1 X-0.497S100
G1 X-1.946S0
G1 X-0.496S100
G1 X-1.754S0
G1 X-0.486S100
G1 X-0.141S0
G1 X-0.472S100
G1 X-1.388S0
G1 X-0.514S100
G1 X-1.419S0
G1 X-0.918S100
G1 X-1.37S0
G1 X-0.524S100
G1 X-0.417S0
G1 X-0.03Y0.1S0
G1 X0.416S0
G1 X0.526S100
G1 X1.426S0
G1 X0.861S100
G1 X1.478S0
G1 X0.515S100
G1 X1.396S0
G1 X0.472S100
G1 X0.065S0
G1 X0.486S100
G1 X1.792S0
G1 X0.496S100
G1 X1.946S0
G1 X0.497S100
G1 X2.628S0
G1 X0.508S100
G1 X2.461S0
G1 X0.508S100
G1 X2.46S0
G1 X0.508S100
G1 X1.009S0
G1 X0.659S100
G1 X1.878S0
G1 X0.247S100
G1 X1.067S0
G1 X0.496S100
G1 X2.49S0
G1 X0.53S100
G1 X1.283S0
G1 X0.53S100
G1 X0.987S0
G1 X0.496S100
G1 X2.156S0
G1 X0.497S100
G1 X1.212S0
G1 X0.562S100
G1 X1.016S0
G1 X0.566S100
G1 X1.272S0
G1 X0.553S100
G1 X1.777S0
G1 X0.481S100
G1 X0.087S0
G1 X0.49S100
G1 X1.217S0
G1 X0.565S100
G1 X1.272S0
G1 X0.54S100
G1 X0.844S0
G1 X0.565S100
G1 X1.272S0
G1 X0.54S100
G1 X0.931S0
G1 X0.129S100
G1 X1.401S0
G1 X0.566S100
G1 X1.038S0
G1 X0.565S100
G1 X1.272S0
G1 X0.54S100
G1 X0.417S0
G1 X-0.03Y0.1S0
G1 X-0.417S0
G1 X-0.596S100
G1 X-1.113S0
G1 X-0.588S100
G1 X-1.12S0
G1 X-0.598S100
G1 X-1.177S0
G1 X-0.349S100
G1 X-0.901S0
G1 X-0.597S100
G1 X-1.112S0
G1 X-0.588S100
G1 X-0.924S0
G1 X-0.597S100
G1 X-1.112S0
G1 X-0.588S100
G1 X-1.267S0
G1 X-0.49S100
G1 X-0.022S0
G1 X-0.487S100
G1 X-1.879S0
G1 X-0.597S100
G1 X-1.112S0
G1 X-0.592S100
G1 X-1.096S0
G1 X-0.611S100
G1 X-1.13S0
G1 X-0.497S100
G1 X-2.156S0
G1 X-0.496S100
G1 X-1.024S0
G1 X-0.552S100
G1 X-1.183S0
G1 X-0.541S100
G1 X-2.52S0
G1 X-0.496S100
G1 X-1.023S0
G1 X-0.452S100
G1 X-1.589S0
G1 X-0.703S100
G1 X-1.025S0
G1 X-0.507S100
G1 X-2.461S0
G1 X-0.508S100
G1 X-2.461S0
G1 X-0.507S100
G1 X-2.697S0
G1 X-0.497S100
G1 X-1.946S0
G1 X-0.496S100
G1 X-1.831S0
G1 X-0.946S100
G1 X-1.403S0
G1 X-0.517S100
G1 X-1.536S0
G1 X-0.805S100
G1 X-1.483S0
G1 X-0.527S100
G1 X-0.416S0
G1 X-0.031Y0.1S0
G1 X0.417S0
G1 X0.528S100
G1 X1.54S0
G1 X0.747S100
G1 X1.595S0
G1 X0.519S100
G1 X1.41S0
G1 X0.869S100
G1 X1.87S0
G1 X0.496S100
G1 X1.946S0
G1 X0.497S100
G1 X2.765S0
G1 X0.501S100
G1 X2.468S0
G1 X0.501S100
G1 X2.467S0
G1 X0.501S100
G1 X1.065S0
G1 X0.817S100
G1 X1.145S0
G1 X0.681S100
G1 X1.022S0
G1 X0.496S100
G1 X2.567S0
G1 X0.627S100
G1 X0.951S0
G1 X0.609S100
G1 X1.066S0
G1 X0.496S100
G1 X2.156S0
G1 X0.497S100
G1 X0.98S0
G1 X0.715S100
G1 X1.21S0
G1 X0.654S100
G1 X0.861S0
G1 X0.661S100
G1 X1.995S0
G1 X0.94S100
G1 X1.332S0
G1 X0.653S100
G1 X0.861S0
G1 X0.662S100
G1 X1.045S0
G1 X0.653S100
G1 X0.861S0
G1 X0.662S100
G1 X0.938S0
G1 X0.556S100
G1 X0.896S0
G1 X0.648S100
G1 X1.228S0
G1 X0.653S100
G1 X0.861S0
G1 X0.662S100
G1 X0.417S0
G1 X-0.069Y0.1S0
G1 X-0.417S0
G1 X-0.828S100
G1 X-0.392S0
G1 X-0.812S100
G1 X-1.363S0
G1 X-0.844S100
G1 X-0.34S0
G1 X-0.84S100
G1 X-1.023S0
G1 X-0.828S100
G1 X-0.392S0
G1 X-0.812S100
G1 X-1.189S0
G1 X-0.828S100
G1 X-0.392S0
G1 X-0.812S100
G1 X-1.407S0
G1 X-0.881S100
G1 X-2.122S0
G1 X-0.828S100
G1 X-0.393S0
G1 X-0.809S100
G1 X-1.356S0
G1 X-2.124S100
G1 X-2.156S0
G1 X-0.496S100
G1 X-1.113S0
G1 X-0.794S100
G1 X-0.498S0
G1 X-0.785S100
G1 X-1.001S0
G1 X-2.125S100
G1 X-1.054S0
G1 X-2.506S100
G1 X-1.128S0
G1 X-2.464S100
G1 X-0.505S0
G1 X-2.464S100
G1 X-0.504S0
G1 X-2.464S100
G1 X-0.844S0
G1 X-0.497S100
G1 X-1.946S0
G1 X-0.496S100
G1 X-1.908S0
G1 X-0.793S100
G1 X-1.417S0
G1 X-0.521S100
G1 X-1.654S0
G1 X-0.69S100
G1 X-1.597S0
G1 X-0.529S100
G1 X-0.417S0
G1 X-0.031Y0.1S0
G1 X0.417S0
G1 X0.531S100
G1 X1.653S0
G1 X0.633S100
G1 X1.713S0
G1 X0.523S100
G1 X1.424S0
G1 X0.716S100
G1 X1.947S0
G1 X0.496S100
G1 X1.946S0
G1 X0.497S100
G1 X0.775S0
G1 X2.551S100
G1 X0.417S0
G1 X2.551S100
G1 X0.418S0
G1 X2.551S100
G1 X1.257S0
G1 X2.283S100
G1 X1.13S0
G1 X2.185S100
G1 X1.023S0
G1 X1.906S100
G1 X1.202S0
G1 X0.496S100
G1 X2.156S0
G1 X2.037S100
G1 X1.536S0
G1 X1.844S100
G1 X2.274S0
G1 X0.822S100
G1 X1.509S0
G1 X1.845S100
G1 X1.376S0
G1 X1.845S100
G1 X1.178S0
G1 X1.883S100
G1 X1.536S0
G1 X1.845S100
G1 X0.417S0
G1 X-0.109Y0.1S0
G1 X-0.417S0
G1 X-1.614S100
G1 X-1.762S0
G1 X-1.64S100
G1 X-1.426S0
G1 X-1.615S100
G1 X-1.606S0
G1 X-1.615S100
G1 X-1.63S0
G1 X-0.762S100
G1 X-2.444S0
G1 X-1.607S100
G1 X-1.781S0
G1 X-1.911S100
G1 X-2.164S0
G1 X-0.496S100
G1 X-1.291S0
G1 X-1.708S100
G1 X-1.119S0
G1 X-2.193S100
G1 X-1.3S0
G1 X-1.964S100
G1 X-1.419S0
G1 X-2.547S100
G1 X-0.422S0
G1 X-2.547S100
G1 X-0.421S0
G1 X-2.547S100
G1 X-0.771S0
G1 X-0.497S100
G1 X-1.946S0
G1 X-0.496S100
G1 X-1.986S0
G1 X-0.639S100
G1 X-1.43S0
G1 X-0.526S100
G1 X-1.771S0
G1 X-0.577S100
G1 X-1.71S0
G1 X-0.532S100
G1 X-0.417S0
G1 X-0.013Y0.1S0
G1 X0.417S0
G1 X0.515S100
G1 X1.768S0
G1 X0.518S100
G1 X1.831S0
G1 X0.512S100
G1 X1.454S0
G1 X0.575S100
G1 X2.013S0
G1 X0.49S100
G1 X1.952S0
G1 X0.491S100
G1 X0.794S0
G1 X2.493S100
G1 X0.475S0
G1 X2.494S100
G1 X0.475S0
G1 X2.493S100
G1 X1.676S0
G1 X1.523S100
G1 X1.556S0
G1 X2.134S100
G1 X1.309S0
G1 X1.379S100
G1 X1.454S0
G1 X0.49S100
G1 X2.205S0
G1 X1.7S100
G1 X2.12S0
G1 X1.296S100
G1 X2.649S0
G1 X0.697S100
G1 X1.797S0
G1 X1.303S100
G1 X1.918S0
G1 X1.303S100
G1 X1.742S0
G1 X1.329S100
G1 X2.068S0
G1 X1.303S100
G1 X0.417S0
G1 X-0.243Y0.1S0
G1 X-0.417S0
G1 X-0.792S100
G1 X-2.593S0
G1 X-0.825S100
G1 X-2.232S0
G1 X-0.792S100
G1 X-2.429S0
G1 X-0.792S100
G1 X-2.243S0
G1 X-0.352S100
G1 X-3.052S0
G1 X-0.807S100
G1 X-3.128S0
G1 X-0.76S100
G1 X-2.502S0
G1 X-0.26S100
G1 X-1.847S0
G1 X-0.811S100
G1 X-1.743S0
G1 X-1.807S100
G1 X-2.073S0
G1 X-0.862S100
G1 X-2.165S0
G1 X-2.194S100
G1 X-0.774S0
G1 X-2.195S100
G1 X-0.773S0
G1 X-2.195S100
G1 X-1.047S0
G1 X-0.26S100
G1 X-2.183S0
G1 X-0.259S100
G1 X-2.262S0
G1 X-0.288S100
G1 X-1.703S0
G1 X-0.305S100
G1 X-2.051S0
G1 X-0.327S100
G1 X-1.941S0
G1 X-0.33S100
G1 X-0.417S0
G90
; Cut @ 1000.002 mm/min, 10% power
M8
G0 X32.935Y54.913
; Layer C01
G1 X34.458Y55.069S100
G1 X36.078Y55.214
G1 X37.788Y55.349
G1 X39.581Y55.472
G1 X41.453Y55.584
G1 X43.396Y55.686
G1 X45.405Y55.777
G1 X47.474Y55.858
G1 X49.595Y55.929
G1 X51.764Y55.989
G1 X53.974Y56.039
G1 X56.219Y56.08
G1 X60.788Y56.132
G1 X65.424Y56.146
G1 X70.076Y56.123
G1 X74.695Y56.065
G1 X76.978Y56.022
G1 X79.234Y55.971
G1 X81.457Y55.912
G1 X83.641Y55.844
G1 X85.78Y55.768
G1 X87.869Y55.684
G1 X89.9Y55.592
G1 X91.867Y55.493
G1 X93.765Y55.385
G1 X95.588Y55.271
G1 X97.329Y55.149
G1 X98.981Y55.019
G1 X99.595Y54.915
G1 X100.167Y54.782
G1 X100.7Y54.622
G1 X101.193Y54.436
G1 X101.645Y54.227
G1 X102.057Y53.997
G1 X102.43Y53.748
G1 X102.763Y53.481
G1 X103.055Y53.2
G1 X103.309Y52.905
G1 X103.523Y52.598
G1 X103.697Y52.283
G1 X103.832Y51.96
G1 X103.927Y51.632
G1 X103.983Y51.301
G1 X104.001Y50.969
G1 X103.979Y50.637
G1 X103.918Y50.308
G1 X103.818Y49.984
G1 X103.679Y49.666
G1 X103.502Y49.357
G1 X103.286Y49.059
G1 X103.031Y48.774
G1 X102.738Y48.503
G1 X102.406Y48.25
G1 X102.036Y48.014
G1 X101.628Y47.8
G1 X101.182Y47.608
G1 X100.697Y47.441
G1 X100.175Y47.301
G1 X99.615Y47.189
G1 X99.017Y47.108
G1 X97.494Y46.944
G1 X95.873Y46.792
G1 X94.162Y46.652
G1 X92.364Y46.525
G1 X90.488Y46.409
G1 X88.54Y46.305
G1 X86.524Y46.212
G1 X84.449Y46.131
G1 X82.319Y46.06
G1 X80.141Y46
G1 X77.922Y45.951
G1 X75.668Y45.912
G1 X71.077Y45.864
G1 X66.42
G1 X61.746Y45.881
G1 X57.105Y45.944
G1 X54.812Y45.987
G1 X52.546Y46.039
G1 X50.314Y46.099
G1 X48.12Y46.166
G1 X45.972Y46.241
G1 X43.876Y46.323
G1 X41.838Y46.412
G1 X39.865Y46.507
G1 X37.962Y46.609
G1 X36.135Y46.718
G1 X34.391Y46.833
G1 X32.737Y46.953
G0 X33.147Y46.922
G1 X32.531Y47.008
G1 X31.954Y47.125
G1 X31.417Y47.27
G1 X30.919Y47.443
G1 X30.46Y47.64
G1 X30.04Y47.86
G1 X29.659Y48.101
G1 X29.318Y48.36
G1 X29.016Y48.637
G1 X28.754Y48.927
G1 X28.53Y49.231
G1 X28.346Y49.544
G1 X28.201Y49.867
G1 X28.094Y50.196
G1 X28.027Y50.529
G1 X28Y50.865
G1 X28.011Y51.201
G1 X28.061Y51.536
G1 X28.15Y51.867
G1 X28.279Y52.192
G1 X28.446Y52.51
G1 X28.652Y52.817
G1 X28.898Y53.113
G1 X29.182Y53.396
G1 X29.505Y53.662
G1 X29.867Y53.911
G1 X30.268Y54.139
G1 X30.708Y54.346
G1 X31.187Y54.529
G1 X31.704Y54.686
G1 X32.26Y54.814
G1 X32.856Y54.913
; Cut @ 1000.002 mm/min, 40% power
M8
G0 X31.195Y56
; Layer C02
G1 X31.984Y56.102S400
G1 X32.798Y56.2
G1 X33.639Y56.295
G1 X34.503Y56.386
G1 X36.303Y56.557
G1 X38.191Y56.714
G1 X40.161Y56.858
G1 X42.207Y56.988
G1 X44.322Y57.105
G1 X46.499Y57.208
G1 X48.732Y57.298
G1 X51.015Y57.375
G1 X53.341Y57.44
G1 X55.704Y57.491
G1 X60.514Y57.558
G1 X65.393Y57.576
G1 X70.29Y57.547
G1 X75.153Y57.472
G1 X77.556Y57.418
G1 X79.93Y57.352
G1 X82.27Y57.276
G1 X84.569Y57.19
G1 X86.821Y57.093
G1 X89.02Y56.986
G1 X91.157Y56.868
G1 X93.229Y56.741
G1 X95.227Y56.604
G1 X97.145Y56.457
G1 X98.977Y56.301
G1 X100.717Y56.136
G1 X101.363Y56.003
G1 X101.966Y55.833
G1 X102.526Y55.628
G1 X103.045Y55.391
G1 X103.521Y55.124
G1 X103.955Y54.83
G1 X104.347Y54.511
G1 X104.697Y54.171
G1 X105.006Y53.811
G1 X105.272Y53.434
G1 X105.497Y53.043
G1 X105.681Y52.639
G1 X105.823Y52.227
G1 X105.923Y51.808
G1 X105.982Y51.385
G1 X106Y50.96
G1 X105.977Y50.536
G1 X105.913Y50.116
G1 X105.808Y49.701
G1 X105.662Y49.296
G1 X105.475Y48.901
G1 X105.248Y48.52
G1 X104.98Y48.155
G1 X104.671Y47.81
G1 X104.322Y47.485
G1 X103.933Y47.185
G1 X103.503Y46.911
G1 X103.033Y46.666
G1 X102.523Y46.452
G1 X101.974Y46.273
G1 X101.384Y46.13
G1 X100.754Y46.027
G1 X99.966Y45.92
G1 X99.151Y45.817
G1 X98.311Y45.718
G1 X97.446Y45.623
G1 X95.644Y45.444
G1 X93.752Y45.281
G1 X91.777Y45.133
G1 X89.726Y45
G1 X87.604Y44.882
G1 X85.42Y44.778
G1 X83.178Y44.687
G1 X80.886Y44.611
G1 X78.55Y44.548
G1 X76.177Y44.498
G1 X71.345Y44.436
G1 X66.442Y44.424
G1 X61.522Y44.459
G1 X56.637Y44.538
G1 X54.223Y44.594
G1 X51.838Y44.66
G1 X49.488Y44.737
G1 X47.179Y44.823
G1 X44.918Y44.918
G1 X42.712Y45.023
G1 X40.567Y45.136
G1 X38.489Y45.259
G1 X36.486Y45.389
G1 X34.563Y45.528
G1 X32.728Y45.675
G1 X30.986Y45.829
G0 X31.419Y45.788
G1 X30.77Y45.898
G1 X30.163Y46.048
G1 X29.597Y46.234
G1 X29.072Y46.454
G1 X28.589Y46.707
G1 X28.147Y46.988
G1 X27.747Y47.295
G1 X27.388Y47.627
G1 X27.07Y47.98
G1 X26.793Y48.351
G1 X26.558Y48.739
G1 X26.364Y49.14
G1 X26.211Y49.552
G1 X26.1Y49.972
G1 X26.029Y50.398
G1 X26Y50.827
G1 X26.011Y51.257
G1 X26.064Y51.685
G1 X26.158Y52.108
G1 X26.293Y52.523
G1 X26.47Y52.929
G1 X26.687Y53.322
G1 X26.945Y53.701
G1 X27.244Y54.061
G1 X27.584Y54.402
G1 X27.965Y54.72
G1 X28.387Y55.012
G1 X28.85Y55.276
G1 X29.354Y55.51
G1 X29.899Y55.71
G1 X30.485Y55.874
G1 X31.111Y56.001
M9
G1 S0
M5
G90
; return to user-defined finish pos
G0 X0 Y0
M2
